!!!OTL: I WOASS A KLOANS HAEUSERL
!!!ARE: Europa, Mitteleuropa, Deutschland, Bayern, Muenchen
!!!SCT: E0898
!!!YEM: Copyright 1995, estate of Helmut Schaffrath.
**kern
*ICvox
*Ivox
*M6/8
*k[f#]
*G:
{8d
=1
8.g
16a
8g
8f#
8e
8f#
=2
4.g
4r}
{8g
=3
8.cc
16dd
8cc
8b
8a
8b
=4
4.a
4r}
{8cc
=5
8b
8dd
8dd
8dd
8ee
8dd
=6
8.dd
16cc
8cc
8cc
8cc}
{16a
16b
=7
8.cc
16b
8cc
8ee
8dd
8cc
=8
4b
8r}
{4gg
8b
=9
8.b
16a
8a
8.cc
16f#
8f#
=10
4.g
4r}
{8cc
=11
8b
8dd
8dd
8dd
8ee
8dd
=12
8.dd
16cc
8cc
8cc
8cc}
{16a
16b
=13
8.cc
16b
8cc
8ee
8dd
8cc
=14
4b
8r}
{4gg
8b
=15
8.b
16a
8a
8.cc
16f#
8f#
=16
4.g
4r}
==
!!!AGN: Ehestands - Lied, Klage
!!!ONB: ESAC (Essen Associative Code) Database: ERK2
!!!AMT: compound duple
!!!AIN: vox
!!!EED: Helmut Schaffrath
!!!EEV: 1.0
*-
